svg/fluentui-system-icons/ic_fluent_calendar_today_16_regular.svg

<svg width="16" height="16" viewBox="0 0 16 16" fill="none" xmlns="http://www.w3.org/2000/svg">
<path d="M14 4.5C14 3.11929 12.8807 2 11.5 2H4.5C3.11929 2 2 3.11929 2 4.5V11.5C2 12.8807 3.11929 14 4.5 14H6.49999C6.49999 14 6.49999 13.6753 6.49999 13.5V13H4.5C3.67157 13 3 12.3284 3 11.5V6H13V11.5C13 12.3284 12.3284 13 11.5 13H9.49999V13.5C9.49999 13.6753 9.49999 14 9.49999 14H11.5C12.8807 14 14 12.8807 14 11.5V4.5ZM4.5 3H11.5C12.3284 3 13 3.67157 13 4.5V5H3V4.5C3 3.67157 3.67157 3 4.5 3ZM8.28126 14.9135C8.4133 14.8235 8.49999 14.6719 8.49999 14.5L8.5 11.0675L9.1799 11.6341C9.39203 11.8109 9.70732 11.7822 9.8841 11.5701C10.0609 11.3579 10.0322 11.0427 9.82008 10.8659L8.32008 9.61588C8.13466 9.46136 7.86532 9.46136 7.6799 9.61588L6.1799 10.8659C5.96776 11.0427 5.93909 11.3579 6.11588 11.5701C6.29266 11.7822 6.60794 11.8109 6.82008 11.6341L7.5 11.0675L7.49999 14.5C7.49999 14.6726 7.58743 14.8248 7.72043 14.9146C7.79932 14.9679 7.89423 14.9993 7.99643 15H8.00355C8.10649 14.9993 8.20203 14.9675 8.28126 14.9135ZM8.75 7.75C8.75 8.16421 8.41421 8.5 8 8.5C7.58579 8.5 7.25 8.16421 7.25 7.75C7.25 7.33579 7.58579 7 8 7C8.41421 7 8.75 7.33579 8.75 7.75Z" fill="#212121"/>
</svg>

<svg xmlns="http://www.w3.org/2000/svg" width="16" height="16"><path d="M14 4.5A2.5 2.5 0 0 0 11.5 2h-7A2.5 2.5 0 0 0 2 4.5v7A2.5 2.5 0 0 0 4.5 14h2v-1h-2A1.5 1.5 0 0 1 3 11.5V6h10v5.5a1.5 1.5 0 0 1-1.5 1.5h-2v1h2a2.5 2.5 0 0 0 2.5-2.5v-7ZM4.5 3h7A1.5 1.5 0 0 1 13 4.5V5H3v-.5A1.5 1.5 0 0 1 4.5 3Zm3.781 11.914A.5.5 0 0 0 8.5 14.5v-3.432l.68.566a.5.5 0 0 0 .64-.768l-1.5-1.25a.5.5 0 0 0-.64 0l-1.5 1.25a.5.5 0 1 0 .64.768l.68-.566V14.5a.5.5 0 0 0 .496.5h.008a.497.497 0 0 0 .277-.086ZM8.75 7.75a.75.75 0 1 1-1.5 0 .75.75 0 0 1 1.5 0Z"/></svg>
